X:381
T:Polka du Gers
C:trad.
O:France
Z:S. Piron
M:2/4
L:1/8
Q:1/4=100
K:G
Bc de/2f/2|gB d>d|e/2d/2c/2B/2 AA/2B/2|c/2d/2e/2f/2 ed|
Bc de/2f/2|gB d>d|e/2d/2c/2B/2 A/2c/2B/2A/2|GBG2:|
|:
